app/assets/images/payment_icons/wbtc.svg

<svg width="38" height="24" viewBox="0 0 38 24" fill="none" xmlns="http://www.w3.org/2000/svg" role="img" aria-labelledby="pi-wbtc">
<rect width="38" height="24" fill="white"/>
<path opacity="0.07" d="M35 0H3C1.3 0 0 1.3 0 3V21C0 22.7 1.4 24 3 24H35C36.7 24 38 22.7 38 21V3C38 1.3 36.6 0 35 0Z" fill="black"/>
<path d="M35 1C36.1 1 37 1.9 37 3V21C37 22.1 36.1 23 35 23H3C1.9 23 1 22.1 1 21V3C1 1.9 1.9 1 3 1H35Z" fill="white"/>
<path fill-rule="evenodd" clip-rule="evenodd" d="M19 4C21.1361 4 23.0765 4.83714 24.5113 6.20116C26.0443 7.65869 27 9.71781 27 12C27 16.4187 23.4187 20 19 20C14.582 20 11 16.4183 11 12C11 7.58204 14.582 4 19 4Z" fill="#282A47"/>
<path d="M23.9585 7.33529L23.5222 7.77165C25.6804 10.1318 25.6804 13.749 23.5222 16.1091L23.9585 16.5455C26.3597 13.941 26.3597 9.92959 23.9585 7.3251V7.33529Z" fill="#54588C"/>
<path d="M14.7818 7.37308C17.142 5.21488 20.7591 5.21488 23.1193 7.37308L23.5556 6.93672C20.9511 4.53558 16.9397 4.53558 14.3353 6.93672L14.7818 7.37308Z" fill="#54588C"/>
<path d="M14.3731 16.1134C12.2175 13.7539 12.2175 10.1399 14.3731 7.78036L13.9367 7.34399C11.5356 9.94848 11.5356 13.9599 13.9367 16.5644L14.3731 16.1134Z" fill="#54588C"/>
<path d="M23.1134 16.5164C20.7533 18.6746 17.1361 18.6746 14.776 16.5164L14.3396 16.9527C16.9441 19.3539 20.9555 19.3539 23.56 16.9527L23.1134 16.5164Z" fill="#54588C"/>
<path fill-rule="evenodd" clip-rule="evenodd" d="M21.7011 10.4902C21.6138 9.57964 20.8284 9.27419 19.8349 9.18109V7.92728H19.0669V9.15782H18.4531V7.92728H17.6909V9.18982H16.1331V10.0116C16.1331 10.0116 16.7004 10.0015 16.6916 10.0116C16.9042 9.98825 17.0972 10.1374 17.128 10.3491V13.8051C17.1236 13.8776 17.09 13.9453 17.0349 13.9927C16.9808 14.041 16.9094 14.0652 16.8371 14.0596C16.8473 14.0684 16.2785 14.0596 16.2785 14.0596L16.1331 14.9775H17.6764V16.2604H18.4444V14.9964H19.0582V16.2545H19.8276V14.9862C21.1251 14.9076 22.0298 14.5876 22.1433 13.3731C22.2349 12.3956 21.7753 11.9593 21.0407 11.7833C21.4873 11.5636 21.7636 11.1564 21.7011 10.4902ZM20.6247 13.2218C20.6247 14.0978 19.2469 14.0777 18.6181 14.0685C18.5619 14.0676 18.5118 14.0669 18.4691 14.0669V12.3738C18.5224 12.374 18.5874 12.3725 18.6612 12.3709C19.3075 12.3566 20.6247 12.3275 20.6247 13.2218ZM18.6013 11.6046C19.1282 11.6139 20.2684 11.6342 20.2684 10.8364C20.2684 10.0184 19.1637 10.0471 18.6266 10.0611C18.5668 10.0626 18.514 10.064 18.4705 10.064V11.6029C18.5078 11.6029 18.5518 11.6037 18.6013 11.6046Z" fill="white"/>
</svg>

<svg width="38" height="24" fill="none" xmlns="http://www.w3.org/2000/svg" aria-labelledby="pi-wbtc"><path fill="#fff" d="M0 0h38v24H0z"/><path opacity=".07" d="M35 0H3C1.3 0 0 1.3 0 3v18c0 1.7 1.4 3 3 3h32c1.7 0 3-1.3 3-3V3c0-1.7-1.4-3-3-3Z" fill="#000"/><path d="M35 1c1.1 0 2 .9 2 2v18c0 1.1-.9 2-2 2H3c-1.1 0-2-.9-2-2V3c0-1.1.9-2 2-2h32Z" fill="#fff"/><path fill-rule="evenodd" clip-rule="evenodd" d="M19 4c2.136 0 4.076.837 5.511 2.201A8 8 0 0 1 19 20a8 8 0 0 1 0-16Z" fill="#282A47"/><path d="m23.959 7.335-.437.437a6.177 6.177 0 0 1 0 8.337l.437.436a6.801 6.801 0 0 0 0-9.22v.01ZM14.782 7.373a6.178 6.178 0 0 1 8.337 0l.437-.436a6.801 6.801 0 0 0-9.22 0l.446.436ZM14.373 16.113a6.177 6.177 0 0 1 0-8.333l-.436-.436a6.802 6.802 0 0 0 0 9.22l.436-.45ZM23.113 16.516a6.177 6.177 0 0 1-8.337 0l-.436.437a6.801 6.801 0 0 0 9.22 0l-.447-.437Z" fill="#54588C"/><path fill-rule="evenodd" clip-rule="evenodd" d="M21.701 10.49c-.087-.91-.873-1.216-1.866-1.309V7.927h-.768v1.23h-.614v-1.23h-.762V9.19h-1.558v.822s.567-.01.559 0a.397.397 0 0 1 .436.337v3.456a.269.269 0 0 1-.093.188.266.266 0 0 1-.198.067c.01.008-.558 0-.558 0l-.146.917h1.543v1.283h.768v-1.264h.614v1.258h.77v-1.268c1.297-.078 2.202-.398 2.315-1.613.092-.977-.368-1.414-1.102-1.59.446-.22.723-.627.66-1.293Zm-1.076 2.732c0 .876-1.378.856-2.007.847l-.149-.002v-1.693l.192-.003c.646-.014 1.964-.043 1.964.85ZM18.6 11.605c.527.009 1.667.03 1.667-.769 0-.818-1.104-.789-1.641-.775l-.156.003v1.539c.037 0 .08 0 .13.002Z" fill="#fff"/></svg>
